X:0
T:Jolly Waggoner
F:http//vwml.org/record/PG/19/1/10/0
S:Edgar Hyldren (sic) of  Barrow aged 79 born Hipley Dam, Norfolk
Z:Transcribed by Ruairidh Greig Nov 2013
N:"For words see LEB's balladsheets"
M:4/4
L:1/8
K:G
Hd|eece ddBd|cBcAG3A|BAAB cBcd|ggfed3d|eeced2dd|!
cBcA (GF)ED|G>FGBA3G|B>ABc"slide"d4|g>gdBe2dc|BAGFG3||!
"sometime"d|cBAG BAGF|GABcd2|"?"Z|Ad^ced3|

